icon/lg/php-alt.svg

<?xml version="1.0" encoding="UTF-8"?>
<svg viewBox="0 0 512 258" version="1.1" xmlns="http://www.w3.org/2000/svg" xmlns:xlink="http://www.w3.org/1999/xlink" preserveAspectRatio="xMidYMid" height="1em" width="1em">
  <g>
    <path d="M116.447824,54.1156555 C138.734515,54.302759 154.884213,60.7284251 164.896919,73.3819622 C174.909625,86.0354994 178.213337,103.31851 174.8134,125.230993 C173.492985,135.243699 170.56348,145.063956 166.030231,154.69711 C161.684086,164.330263 155.643318,173.017208 147.897237,180.763289 C138.451187,190.583546 128.347602,196.816763 117.581136,199.46294 C106.814671,202.109117 95.6686527,203.429532 84.1484277,203.429532 L50.149063,203.429532 L39.3825975,257.26186 L0,257.26186 L40.5159096,54.1156555 L116.447824,54.1156555 Z M452.341234,54.1156555 C474.627924,54.302759 490.777623,60.7284251 500.790329,73.3819622 C510.803035,86.0354994 514.106746,103.31851 510.70681,125.230993 C509.386394,135.243699 506.456889,145.063956 501.923641,154.69711 C497.577495,164.330263 491.536728,173.017208 483.790646,180.763289 C474.344596,190.583546 464.241011,196.816763 453.474546,199.46294 C442.70808,202.109117 431.562062,203.429532 420.041837,203.429532 L386.042473,203.429532 L375.276007,257.26186 L335.89341,257.26186 L376.409319,54.1156555 L452.341234,54.1156555 Z M258.774725,0 L247.724931,54.1156555 L282.857608,54.1156555 C302.123915,54.4952082 316.47742,58.4618008 325.92347,66.0154332 C335.556623,73.5690656 338.389904,87.9279169 334.423311,109.081295 L315.440333,203.429532 L275.774407,203.429532 L293.907402,113.331216 C295.794473,103.885166 295.227817,97.1815175 292.207433,93.214925 C289.18705,89.2483324 282.670505,87.2650362 272.657799,87.2650362 L241.208386,86.9817081 L217.975487,203.429532 L178.876218,203.429532 L219.675455,0 L258.774725,0 Z M85.848396,86.415052 C83.5817716,86.6021555 81.4113719,86.6983801 79.3318511,86.6983801 L73.608,86.698 L56.6656079,171.413464 C57.7989201,171.600567 58.9322322,171.696792 60.0655444,171.696792 L64.0321369,171.696792 L64.0321369,171.696792 C82.1651315,171.883895 97.2777422,170.093048 109.364623,166.313559 C121.451504,162.346967 129.577139,148.560117 133.730835,124.947665 C137.130771,105.114703 133.730835,93.6853565 123.531025,90.6649726 C113.518319,87.6445888 100.961007,86.2279486 85.848396,86.415052 Z M421.741805,86.415052 C419.475181,86.6021555 417.304781,86.6983801 415.225261,86.6983801 L409.501,86.698 L392.559017,171.413464 C393.69233,171.600567 394.825642,171.696792 395.958954,171.696792 L399.925546,171.696792 L399.925546,171.696792 C418.058541,171.883895 433.171152,170.093048 445.258033,166.313559 C457.344914,162.346967 465.470548,148.560117 469.624244,124.947665 C473.024181,105.114703 469.624244,93.6853565 459.424435,90.6649726 C449.411729,87.6445888 436.854416,86.2279486 421.741805,86.415052 Z" fill="#000000"/>
  </g>
</svg>

<svg width="512" height="258" xmlns="http://www.w3.org/2000/svg" preserveAspectRatio="xMidYMid"><path d="M116.448 54.116c22.287.187 38.436 6.612 48.449 19.266 10.013 12.653 13.316 29.937 9.916 51.849-1.32 10.013-4.25 19.833-8.783 29.466-4.346 9.633-10.387 18.32-18.133 26.066-9.446 9.82-19.55 16.054-30.316 18.7-10.766 2.646-21.912 3.967-33.433 3.967H50.15l-10.766 53.832H0L40.516 54.116h75.932Zm335.893 0c22.287.187 38.437 6.612 48.45 19.266 10.012 12.653 13.316 29.937 9.916 51.849-1.32 10.013-4.25 19.833-8.783 29.466-4.347 9.633-10.387 18.32-18.133 26.066-9.446 9.82-19.55 16.054-30.316 18.7-10.767 2.646-21.913 3.967-33.433 3.967h-34l-10.766 53.832h-39.383L376.41 54.116h75.932ZM258.775 0l-11.05 54.116h35.133c19.266.38 33.62 4.346 43.065 11.9 9.634 7.553 12.467 21.912 8.5 43.065L315.44 203.43h-39.666l18.133-90.099c1.887-9.446 1.32-16.15-1.7-20.116-3.02-3.967-9.536-5.95-19.55-5.95l-31.449-.283-23.233 116.448h-39.099L219.676 0h39.099ZM85.848 86.415a79.31 79.31 0 0 1-6.516.283h-5.724l-16.942 84.715c1.133.188 2.266.284 3.4.284h3.966c18.133.187 33.246-1.604 45.333-5.383 12.087-3.967 20.212-17.754 24.366-41.366 3.4-19.833 0-31.263-10.2-34.283-10.013-3.02-22.57-4.437-37.683-4.25Zm335.894 0a79.31 79.31 0 0 1-6.517.283h-5.724l-16.942 84.715c1.133.188 2.267.284 3.4.284h3.967c18.133.187 33.245-1.604 45.332-5.383 12.087-3.967 20.213-17.754 24.366-41.366 3.4-19.833 0-31.263-10.2-34.283-10.012-3.02-22.57-4.437-37.682-4.25Z"/></svg>
